X: 257
T:Miss Susan Gordon's Reel -- Fochabers
B:William Marshall's Scottish Airs, Melodies, Strathspeys, Reels &c (1822)
C:William Marshall
L:1/8
M:C
O:Scotland
R:Reel
Z:Clark Bernst + Richard Robinson
%%Page:50 - 2
F:http://richardrobinson.tunebook.org.uk/tune/4100
%%TBL:{"version":1,"type":"tune","id":"4100"}
K:F
%%staves {1 2}
V:1
f | \
F2 FB (AB/c/) cf | af{d}cB ABcA | G2 GB (Bc/d/) dg | bagf efge |
F2 FB (AB/c/) cf | af{d}cB ABcA | BdBd AcAc | GABc {Bc}d2 d ||
f | \
cfAf cfAf | cfaf {d}cBAc | dg=Bg dgBg | dgba gfef |
cfAf cfAf | cfaf {d}cBAc | BdBd AcAc | GABc {Bc}d2 d |]
V:2 middle=d clef=bass
L:1/4
z/ | ffff | ffff | gggg | bbc'c' | ffff | ffff | bbaa | ggbb/ || \
z/ | ffff | ffff | gggg | bbc'c' | ffff | fffa | bbaa | ggbb/ |]

